static/images/mobile/copyright/wikipedia-wordmark-gom.svg

<?xml version="1.0" encoding="UTF-8"?>
<svg width="120px" height="28px" viewBox="0 0 120 28" version="1.1" xmlns="http://www.w3.org/2000/svg" xmlns:xlink="http://www.w3.org/1999/xlink">
    <title>gom-wordmark</title>
    <g id="Page-1" stroke="none" stroke-width="1" fill="none" fill-rule="evenodd">
        <path d="M118.243402,8.70605586 L120,10.4754714 L115.614912,10.4754714 L115.614912,27.092629 L113.512128,24.9641989 L113.512128,10.4754714 L109.011641,10.4754714 L109.011641,27.092629 L106.921674,24.9770273 L106.921674,20.3226788 C105.887365,21.510849 104.562434,22.1049228 102.946891,22.1049228 C100.955222,22.1049228 99.4336833,21.3441589 98.3822966,19.822631 C97.6984579,18.8310801 97.3565442,17.702757 97.3565442,16.4376503 C98.1258529,16.4376616 98.813964,16.2410536 99.4208662,15.8478489 C100.096149,15.4119092 100.493626,14.8349248 100.613309,14.1168846 C100.6646,13.9459447 100.690189,13.6510383 100.690189,13.2321768 C100.690189,11.9841935 100.220048,11.0652954 99.2797877,10.4754714 L92.1893331,10.4754714 L92.1893331,16.0658187 L86.1886916,16.0401169 C84.5731287,16.0310987 83.7653518,16.4162321 83.7653563,17.1940855 C83.7653518,17.655682 83.8935703,18.0488867 84.1500129,18.3736996 C84.4235405,18.7241694 84.7868273,18.8994042 85.2398723,18.899393 C85.5988789,18.8994042 86.1331237,18.8438183 86.8426079,18.7327141 C87.5520763,18.6130539 88.0863211,18.5532182 88.4453435,18.5532069 C89.6762329,18.5532182 90.7319009,19.0746391 91.6123476,20.1174697 C92.4585793,21.1090432 92.8817007,22.233094 92.8817142,23.4896333 C92.8817007,24.4897402 92.3816473,25.3573473 91.3815539,26.0924657 C90.4669147,26.7677597 89.4881786,27.105401 88.4453435,27.105401 C86.5049575,27.105401 84.6671558,26.2249656 82.9319339,24.4640947 C81.7608656,23.2759359 80.5427877,21.5535276 79.2776979,19.2968701 L80.0598327,18.8481132 C80.8804313,20.4038313 81.8762624,21.7415796 83.0473307,22.861358 C84.5261157,24.2803151 85.9707127,24.9897881 87.3811273,24.9897881 C88.3128414,24.9897881 89.1548108,24.686337 89.9070379,24.0794348 C90.7190782,23.4383423 91.1251045,22.6647613 91.1251169,21.7586804 C91.1251045,21.3825764 90.996886,21.0620245 90.7404603,20.7970361 C90.4840109,20.5320589 90.1720117,20.399559 89.8044626,20.399559 C89.4197959,20.399559 88.8684548,20.5491483 88.1504394,20.8483158 C87.4409541,21.1389611 86.8981611,21.2842668 86.5220605,21.2842668 C85.5475912,21.2842668 84.6885256,20.7799466 83.9448624,19.7712837 C83.7140642,19.4721162 83.2011891,18.5532182 82.4062372,17.0145783 C82.0899599,16.4076873 81.9318236,15.9161843 81.9318269,15.5400578 C81.9318236,14.8135066 82.3207537,14.3305483 83.0986183,14.091194 C83.5345581,13.9544331 84.2226646,13.8860526 85.1629414,13.8860413 L90.2788717,13.8860413 L90.2788717,10.4754151 L77.0595131,10.4754714 L77.0595131,27.092629 L74.9310808,24.9770273 L74.9310808,10.4754714 L70.4434225,10.4754714 L70.4434225,27.0669948 L68.314989,24.9385534 L68.314989,10.4754714 L63.8786183,10.4754714 L63.8786183,27.092629 L61.6732551,24.8744453 L61.6732551,19.5790157 C60.9723156,19.9978659 59.9294704,20.207291 58.5447159,20.2072797 C57.1855911,20.0705187 56.0401706,19.4550718 55.1084509,18.3609276 C54.1852738,17.2924515 53.7236863,16.0701024 53.7236885,14.6938689 L53.7236885,10.4754714 L41.6454747,10.4754714 L41.6454747,15.4118979 C41.9019004,15.1811222 42.0899547,15.0229768 42.2096374,14.9374956 C42.5002545,14.7238094 42.7866094,14.5784924 43.0687042,14.5015446 C43.6499485,14.3391494 44.1927404,14.2579405 44.6970831,14.2579292 C46.0048988,14.2579405 47.086209,14.7152533 47.9410192,15.6298677 C48.7957922,16.5359599 49.2231872,17.651466 49.2232074,18.9763858 C49.2231872,20.0363285 48.8470798,21.0364354 48.094882,21.9767066 C47.5307013,22.7032803 46.6459913,23.3101825 45.4407519,23.7974132 L44.5047542,21.9767066 C45.7185428,21.4125506 46.5305944,20.9680549 46.9409123,20.6432307 C47.846974,19.9337578 48.3000134,19.1558931 48.3000314,18.3096479 C48.3000134,17.548884 47.9452746,16.8607842 47.2358152,16.245326 C46.7827579,15.8606773 46.0775551,15.7153603 45.1202046,15.809375 C44.6671494,15.8520987 44.111536,16.1513112 43.4533597,16.7069112 C42.8037045,17.2539889 42.2010769,17.9249992 41.6454747,18.7199421 L41.6454747,27.092629 L39.5170424,24.9385534 L39.5170424,21.2073866 C39.1494719,21.6176921 38.6066801,21.9724342 37.8886636,22.2716017 C37.1706301,22.5622356 36.525263,22.7075526 35.952559,22.7075526 C34.7131057,22.7075526 33.6531642,22.28443 32.7727321,21.4381849 C31.9008426,20.591951 31.4648984,19.5490978 31.4649006,18.3096479 C31.4648984,17.0445638 31.8794728,16.0017219 32.7086229,15.1811109 C33.5377673,14.3519665 34.5848872,13.9373999 35.8499837,13.9373887 C37.456985,13.9373999 38.6793375,14.6212274 39.5170424,15.9888822 L39.5170424,10.4754714 L27.6183347,10.4754714 L27.6183347,27.092629 L25.4899024,24.9641989 L25.4899024,10.4754714 L21.0407089,10.4754714 L21.0407089,27.092629 L18.7584137,24.8103372 L18.7584137,20.2072797 C18.1173089,20.634686 17.3821882,21.0107899 16.5530494,21.3356141 C15.6042222,21.7031734 14.8092669,21.8698635 14.1681801,21.835662 C12.8688911,21.7672364 11.7448403,21.1390174 10.7960244,19.9508472 C10.0438052,19.0020313 9.66769677,17.8822529 9.66769903,16.591512 C9.81301151,15.9247854 10.0609015,15.390536 10.4113678,14.9887753 C11.7704836,13.7066017 13.2749163,13.0954271 14.9246706,13.1552516 C16.5658632,13.2065426 17.8437757,13.9929633 18.7584137,15.5144799 L18.7584137,10.4754714 L5.82113424,10.4754714 L5.82113424,27.092629 L3.69270193,24.9641989 L3.69270193,10.4754714 L1.79506334,10.4754714 L0,8.70605586 L3.71834517,8.70605586 C2.863553,7.44952775 2.43615691,5.91945515 2.43615691,4.11582677 C2.43615691,2.82510842 2.93620924,1.80362838 3.93631728,1.05138664 C4.7483677,0.444518264 5.84250061,0.141033348 7.21871937,0.141033348 C8.60347611,0.141033348 9.79163613,0.294928901 10.7832028,0.602629825 C11.9371624,0.9531221 13.0868565,1.56856904 14.2322894,2.44898192 C16.1750201,3.94792723 17.6788804,6.03340488 18.7438745,8.70539367 L23.6307287,8.70605586 L25.5155468,8.70605586 C24.6607535,7.44952775 24.2333574,5.91945515 24.2333585,4.11582677 C24.2333574,2.82510842 24.7334108,1.80362838 25.7335189,1.05138664 C26.5455682,0.444518264 27.6397011,0.141033348 29.0159198,0.141033348 C30.4006766,0.141033348 31.5888366,0.294928901 32.5804033,0.602629825 C33.7343629,0.9531221 34.8840569,1.56856904 36.0294898,2.44898192 C37.9722205,3.94792723 39.4760808,6.03340488 40.5410749,8.70539367 L51.749118,8.70605586 L68.6611807,8.70605586 C68.2508786,7.50081875 67.6610727,6.33403299 66.8917606,5.20567603 C65.8831067,3.72691697 64.9214658,2.9875149 64.0068368,2.98749235 C63.1093085,2.9875149 62.3955575,3.35508538 61.8655828,4.09018127 C61.3869048,4.74838574 61.1475629,5.54335119 61.1475573,6.47504379 C61.1475629,7.05632304 61.3313425,7.74016174 61.6988983,8.52654862 L59.6217537,8.52654862 C59.3311309,7.75725122 59.1858094,6.96229705 59.1858094,6.14167482 C59.1858094,4.61162476 59.5020889,3.40209274 60.1346287,2.51309003 C60.8697551,1.49590491 61.9724361,0.987278526 63.4426741,0.987278526 C65.0154929,0.987278526 66.3917072,1.92329987 67.5713202,3.79527491 C68.1782213,4.76121413 68.9090673,6.39814111 69.7638618,8.70605586 L74.9567241,8.70605586 C74.1019308,7.44952775 73.6745358,5.91945515 73.6745358,4.11582677 C73.6745358,2.79091817 74.2515201,1.74807628 75.4054899,0.987278526 C76.4055934,0.329119145 77.6065751,1.77635684e-15 79.0084393,1.77635684e-15 C81.666834,1.77635684e-15 84.1371811,0.880457967 86.4194876,2.64130627 C88.9833632,4.62251592 90.8055012,6.64423268 91.8859058,8.70646696 L118.243402,8.70605586 Z M36.9270226,15.7709124 C35.679019,15.7709236 34.7131057,16.014539 34.0292771,16.5017584 C33.0890015,17.1685076 32.5761275,18.0574878 32.4906508,19.1687102 C32.4393598,19.8696496 32.6316886,20.4338056 33.0676362,20.8612005 C33.4266439,21.2031255 33.9224239,21.3740768 34.5549739,21.3740768 C35.461048,21.3740768 36.4996187,20.9124915 37.6706915,19.9893099 C38.9015831,19.0148597 39.5170323,18.0831333 39.5170424,17.1941419 L39.5170424,16.7710193 C38.7648165,16.1042926 37.9014773,15.7709236 36.9270226,15.7709124 Z M106.870338,10.4754714 L101.613371,10.4754714 C102.263008,11.3302839 102.587821,12.3603087 102.587832,13.5655458 C102.587821,14.7708167 102.147609,15.8393041 101.267173,16.7710193 C100.779942,17.2839068 100.343991,17.6429212 99.9593428,17.8480627 C99.6858095,17.9933797 99.2926048,18.1344243 98.7797286,18.271174 C99.1814781,19.5277359 100.036268,20.3483356 101.34411,20.7329843 C101.822784,20.826999 102.130508,20.8740177 102.26728,20.8740177 C103.891379,20.8740177 105.229127,19.873922 106.280536,17.8736969 C106.67373,17.121489 106.870338,16.2624267 106.870338,15.2964988 L106.870338,10.4754714 Z M15.9504219,15.2195735 C14.428885,15.2195735 13.0783151,15.8179423 11.8987066,17.0146346 C11.3259924,17.5959026 11.0396409,18.1899877 11.0396409,18.7968786 C11.0396409,19.6003888 11.6935527,20.0021383 13.0013887,20.0021383 C14.6425825,20.0021383 16.1341936,19.3097548 17.4762255,17.9249879 C18.1515003,17.2326158 18.489154,16.6214412 18.489154,16.0914642 C18.2156106,15.5102075 17.3693666,15.2195735 15.9504219,15.2195735 Z M61.6732551,10.4754714 L55.659792,10.4754714 L55.659792,15.7965579 C55.659792,16.5316876 55.8606645,17.1984255 56.2624207,17.7967717 C56.7240037,18.4806104 57.300988,18.8225241 57.9933748,18.8225241 C58.7370368,18.8225241 59.3866785,18.6173826 59.942301,18.2070659 C60.1303462,18.0874057 60.4722633,17.7882269 60.9680512,17.309541 C61.1646445,17.0872988 61.3997117,16.7069224 61.6732551,16.1683895 L61.6732551,10.4754714 Z M8.42397676,2.00021383 C7.20161861,2.00023637 6.1929647,2.2737696 5.39801278,2.8208135 C4.39790248,3.50466347 3.89785015,4.40219966 3.89785241,5.51341077 C3.89785015,6.92383443 4.31242349,7.98804946 5.14157467,8.70605586 L18.064843,8.7075555 C17.9265964,8.44912596 17.730391,8.05541941 17.4762255,7.52644171 C17.159937,6.79989057 16.5573094,6.00920876 15.6683394,5.1543963 C14.5400016,4.06883068 13.4373205,3.29524964 12.360294,2.83363062 C11.0610005,2.27804197 9.74889663,2.00023637 8.42397676,2.00021383 Z M30.2211772,2.00021383 C28.9988191,2.00023637 27.9901652,2.2737696 27.1952132,2.8208135 C26.195103,3.50466347 25.6950506,4.40219966 25.6950529,5.51341077 C25.6950506,6.92383443 26.109624,7.98804946 26.9387751,8.70605586 L39.8620439,8.7075555 C39.7237976,8.44912596 39.5275914,8.05541941 39.2734259,7.52644171 C38.9571374,6.79989057 38.3545099,6.00920876 37.465541,5.1543963 C36.337202,4.06883068 35.234521,3.29524964 34.1574945,2.83363062 C32.8582021,2.27804197 31.5460971,2.00023637 30.2211772,2.00021383 Z M76.585104,2.846459 C75.6191863,3.47902925 75.136229,4.36800941 75.1362313,5.51341077 C75.136229,6.92383443 75.5508024,7.98804946 76.3799536,8.70605586 L91.202,8.706 L91.3174458,8.87273471 C89.9497616,6.85545394 88.3854942,5.26981796 86.6246369,4.11582677 C84.7440833,2.88494416 82.5686391,2.20538911 80.0982987,2.07713906 C78.6707912,2.00025892 77.4997263,2.25666884 76.585104,2.846459 Z" id="gom-wordmark" fill="#000000" fill-rule="nonzero"></path>
    </g>
</svg>

<svg xmlns="http://www.w3.org/2000/svg" width="120" height="28"><path fill="#000" fill-rule="nonzero" d="m118.243 8.706 1.757 1.77h-4.385v16.617l-2.103-2.129V10.475h-4.5v16.618l-2.09-2.116v-4.654c-1.035 1.188-2.36 1.782-3.975 1.782-1.992 0-3.513-.76-4.565-2.282-.684-.992-1.025-2.12-1.025-3.385.769 0 1.457-.197 2.064-.59.675-.436 1.073-1.013 1.192-1.731.052-.171.077-.466.077-.885 0-1.248-.47-2.167-1.41-2.757h-7.09v5.59l-6.001-.025c-1.616-.009-2.424.376-2.424 1.154 0 .462.129.855.385 1.18.274.35.637.525 1.09.525.359 0 .893-.055 1.603-.166.71-.12 1.243-.18 1.602-.18 1.231 0 2.287.522 3.167 1.564.847.992 1.27 2.116 1.27 3.373 0 1-.5 1.867-1.5 2.602-.915.676-1.894 1.013-2.937 1.013-1.94 0-3.778-.88-5.513-2.64-1.171-1.19-2.39-2.911-3.654-5.168l.782-.449c.82 1.556 1.816 2.894 2.987 4.013 1.48 1.42 2.924 2.129 4.334 2.129.932 0 1.774-.304 2.526-.91.812-.642 1.218-1.415 1.218-2.321 0-.376-.128-.697-.385-.962a1.254 1.254 0 0 0-.936-.397c-.384 0-.936.15-1.654.448-.709.291-1.252.436-1.628.436-.974 0-1.833-.504-2.577-1.513-.23-.299-.744-1.218-1.539-2.756-.316-.607-.474-1.099-.474-1.475 0-.726.389-1.21 1.167-1.449.436-.137 1.124-.205 2.064-.205h5.116v-3.41h-13.22v16.617l-2.128-2.116V10.475h-4.488v16.592l-2.128-2.128V10.475h-4.436v16.618l-2.206-2.219V19.58c-.7.419-1.744.628-3.128.628-1.36-.136-2.505-.752-3.437-1.846-.923-1.069-1.384-2.29-1.384-3.667v-4.219H41.645v4.937c.257-.23.445-.389.565-.475.29-.213.577-.359.859-.435a6.071 6.071 0 0 1 1.628-.244c1.308 0 2.39.457 3.244 1.372.855.906 1.282 2.021 1.282 3.346 0 1.06-.376 2.06-1.128 3-.564.727-1.449 1.334-2.654 1.821l-.936-1.82c1.214-.564 2.026-1.009 2.436-1.334.906-.71 1.359-1.487 1.359-2.333 0-.761-.355-1.45-1.064-2.065-.453-.384-1.158-.53-2.116-.436-.453.043-1.008.342-1.667.898a10.39 10.39 0 0 0-1.808 2.013v8.373l-2.128-2.154v-3.732c-.368.41-.91.765-1.628 1.065-.718.29-1.364.436-1.936.436-1.24 0-2.3-.424-3.18-1.27-.872-.846-1.308-1.889-1.308-3.128 0-1.265.414-2.308 1.244-3.129.829-.829 1.876-1.244 3.141-1.244 1.607 0 2.83.684 3.667 2.052v-5.514H27.618v16.618l-2.128-2.129V10.475h-4.45v16.618l-2.282-2.283v-4.603c-.64.428-1.376.804-2.205 1.129-.949.367-1.744.534-2.385.5-1.3-.069-2.423-.697-3.372-1.885-.752-.949-1.128-2.069-1.128-3.36.145-.666.393-1.2.743-1.602 1.36-1.282 2.864-1.894 4.514-1.834 1.64.052 2.919.838 3.833 2.36v-5.04H5.821v16.618l-2.128-2.129V10.475H1.795L0 8.706h3.718C2.864 7.45 2.436 5.92 2.436 4.116c0-1.29.5-2.312 1.5-3.065.812-.606 1.907-.91 3.283-.91 1.384 0 2.573.154 3.564.462 1.154.35 2.304.966 3.45 1.846 1.942 1.499 3.446 3.584 4.51 6.256l4.888.001h1.885c-.855-1.256-1.283-2.787-1.283-4.59 0-1.29.5-2.312 1.5-3.065.813-.606 1.907-.91 3.283-.91 1.385 0 2.573.154 3.564.462 1.154.35 2.304.966 3.45 1.846 1.942 1.499 3.446 3.584 4.511 6.256l11.208.001h16.912c-.41-1.205-1-2.372-1.77-3.5-1.008-1.48-1.97-2.218-2.884-2.219-.898 0-1.611.368-2.141 1.103-.48.658-.718 1.453-.718 2.385 0 .581.183 1.265.55 2.052h-2.076a6.694 6.694 0 0 1-.436-2.385c0-1.53.316-2.74.949-3.629.735-1.017 1.837-1.526 3.308-1.526 1.572 0 2.949.936 4.128 2.808.607.966 1.338 2.603 2.193 4.911h5.193c-.855-1.256-1.282-2.787-1.282-4.59 0-1.325.577-2.368 1.73-3.129C76.405.33 77.607 0 79.008 0c2.659 0 5.13.88 7.411 2.641 2.564 1.982 4.387 4.003 5.467 6.065h26.357Zm-81.316 7.065c-1.248 0-2.214.244-2.898.73-.94.668-1.453 1.556-1.538 2.668-.052.7.14 1.265.577 1.692.359.342.854.513 1.487.513.906 0 1.945-.462 3.116-1.385 1.23-.974 1.846-1.906 1.846-2.795v-.423c-.752-.667-1.616-1-2.59-1Zm69.943-5.296h-5.257c.65.855.975 1.885.975 3.09 0 1.206-.44 2.274-1.32 3.206-.488.513-.924.872-1.309 1.077-.273.145-.666.286-1.18.423.402 1.257 1.257 2.077 2.565 2.462.479.094.787.141.923.141 1.624 0 2.962-1 4.014-3 .393-.753.59-1.612.59-2.578v-4.82ZM15.95 15.22c-1.521 0-2.872.598-4.051 1.795-.573.58-.86 1.175-.86 1.782 0 .803.655 1.205 1.962 1.205 1.642 0 3.133-.692 4.475-2.077.676-.692 1.013-1.304 1.013-1.834-.273-.58-1.12-.871-2.539-.871Zm45.723-4.745H55.66v5.322c0 .735.2 1.401.602 2 .462.684 1.039 1.026 1.731 1.026.744 0 1.394-.206 1.95-.616.187-.12.53-.419 1.025-.897.197-.223.432-.603.705-1.142v-5.693ZM8.424 2c-1.222 0-2.231.274-3.026.82-1 .685-1.5 1.582-1.5 2.693 0 1.41.414 2.475 1.244 3.193l12.923.002a33.344 33.344 0 0 1-.589-1.182c-.316-.726-.919-1.517-1.808-2.372-1.128-1.085-2.23-1.859-3.308-2.32C11.061 2.278 9.75 2 8.424 2Zm21.797 0c-1.222 0-2.23.274-3.026.82-1 .685-1.5 1.582-1.5 2.693 0 1.41.415 2.475 1.244 3.193l12.923.002a33.344 33.344 0 0 1-.589-1.182c-.316-.726-.918-1.517-1.807-2.372-1.129-1.085-2.231-1.859-3.309-2.32C32.858 2.278 31.547 2 30.221 2Zm46.364.846c-.966.633-1.449 1.522-1.449 2.667 0 1.41.415 2.475 1.244 3.193h14.822l.115.167c-1.367-2.018-2.932-3.603-4.692-4.757-1.88-1.231-4.056-1.91-6.527-2.039-1.427-.077-2.598.18-3.513.77Z"/></svg>
